( pcb2gcode 1.3.2 )
( Software-independent Gcode )

G94 ( Millimeters per minute feed rate. )
G21 ( Units == Millimeters. )

G90 ( Absolute coordinates. )
S10000 ( RPM spindle speed. )
F360.00000 ( Feedrate. )

F360.00000 ( Feedrate. )
M3 ( Spindle on clockwise. )
G04 P0 ( dwell for no time -- G64 should not smooth over this point )
G00 Z10.00000 ( retract )

G00 X1.62580 Y25.49187 ( rapid move to begin. )
F30.00000
G01 Z-0.10000
G04 P0 ( dwell for no time -- G64 should not smooth over this point )
F360.00000
G01 X1.62580 Y25.49187
X2.64071 Y25.37394
X3.26641 Y25.33962
X4.01483 Y25.33081
X5.48330 Y25.42113
X7.19831 Y25.47604
X7.80872 Y25.56177
X8.54263 Y25.75262
X15.02900 Y25.75262
X15.55402 Y25.60617
X16.16438 Y25.49801
X16.76133 Y25.45565
X17.41284 Y25.48178
X19.40580 Y25.01130
X19.86092 Y24.87069
X20.16356 Y24.73761
X20.45228 Y24.57556
X21.26501 Y24.00462
X22.26914 Y21.61560
X22.35009 Y21.46350
X22.45484 Y21.33569
X22.58339 Y21.23221
X22.73574 Y21.15301
X25.38301 Y20.07255
X26.23586 Y20.07255
X26.61620 Y20.09599
X26.99652 Y20.16630
X27.37686 Y20.28347
X27.75717 Y20.44753
X28.13751 Y20.65845
X28.51782 Y20.91624
X28.89816 Y21.22091
X29.27848 Y21.57242
X27.43474 Y23.41646
X27.17251 Y23.71618
X26.98516 Y24.01590
X26.87277 Y24.31562
X26.83530 Y24.61534
X26.83530 Y25.11572
X26.79784 Y25.41544
X26.68544 Y25.71518
X26.49812 Y26.01490
X26.18509 Y26.36540
X24.41557 Y26.36540
X22.73574 Y26.76197
X22.40714 Y26.87637
X22.11146 Y27.05671
X21.84875 Y27.30294
X21.61898 Y27.61508
X20.80115 Y28.93839
X21.33163 Y30.21911
X22.22772 Y31.11520
X22.35474 Y31.22635
X22.48174 Y31.30572
X22.60874 Y31.35335
X22.73574 Y31.36922
X26.23586 Y31.36922
X26.36289 Y31.35335
X26.48989 Y31.30572
X26.61689 Y31.22635
X26.74389 Y31.11520
X27.47477 Y30.38434
X28.71805 Y29.86935
X28.76514 Y29.86935
X30.93486 Y28.97063
X31.14365 Y28.86750
X31.32884 Y28.74081
X31.49049 Y28.59057
X31.62856 Y28.41675
X31.68487 Y27.85628
X31.73456 Y27.55872
X32.17464 Y27.24830
X32.62683 Y26.87040
X32.92307 Y26.66809
X33.27133 Y26.48132
X33.69074 Y26.31155
X34.21057 Y26.16403
X34.46224 Y26.11254
X35.12350 Y26.02692
X35.75235 Y25.75262
X41.69900 Y25.75262
X42.43299 Y25.56174
X43.04332 Y25.47604
X44.75871 Y25.42113
X46.22665 Y25.33081
X46.97519 Y25.33962
X47.60089 Y25.37396
X48.61580 Y25.49187
X48.61580 Y33.37580
X1.62580 Y33.37580
X1.62580 Y25.49187
G04 P0 ( dwell for no time -- G64 should not smooth over this point )
G00 Z10.00000 ( retract )

G00 X1.62580 Y25.49184 ( rapid move to begin. )
F30.00000
G01 Z-0.10000
G04 P0 ( dwell for no time -- G64 should not smooth over this point )
F360.00000
G01 X1.62580 Y25.49184
X1.62580 Y2.61937
X7.03565 Y6.27900
X7.69706 Y6.81085
X8.36950 Y7.46579
X8.66348 Y7.72861
X8.95744 Y7.92906
X9.25142 Y8.06719
X9.54537 Y8.14298
X9.89739 Y8.05208
X10.16983 Y8.00026
X10.43638 Y7.97788
X10.86180 Y8.00026
X11.59657 Y8.16582
X12.10937 Y8.23112
X12.27082 Y8.32431
X12.70378 Y8.61844
X13.20828 Y9.04262
X13.81846 Y9.67290
X14.12463 Y10.03328
X14.48999 Y10.51580
X9.48713 Y10.51580
X9.14428 Y10.65776
X8.66915 Y10.91953
X8.48441 Y11.20932
X8.33928 Y11.47714
X8.13156 Y11.95659
X7.95114 Y12.53558
X7.81157 Y13.23449
X7.34080 Y14.37099
X7.34080 Y14.41157
X6.81027 Y14.89103
X6.60133 Y15.09999
X6.24992 Y15.48833
X5.86572 Y15.99194
X5.59648 Y16.43136
X5.40713 Y16.82592
X5.27642 Y17.18983
X5.19158 Y17.53397
X5.14546 Y17.86676
X5.13451 Y18.07570
X5.14546 Y18.40486
X5.19158 Y18.73765
X5.32694 Y19.23679
X5.49006 Y19.63138
X5.59653 Y19.84034
X5.70837 Y20.03684
X5.91149 Y20.17674
X6.32755 Y20.41812
X6.81027 Y20.63493
X7.15609 Y20.75688
X7.66613 Y20.89744
X8.01761 Y20.82546
X8.55241 Y20.67580
X8.84875 Y20.67580
X9.35728 Y20.77191
X9.86582 Y20.80394
X11.16579 Y20.80394
X11.59683 Y20.78093
X12.02784 Y20.71189
X12.52342 Y20.77986
X13.08374 Y20.80216
X13.64414 Y20.76559
X14.17709 Y20.67580
X15.01922 Y20.67580
X15.76291 Y20.86986
X16.37332 Y20.95558
X16.76133 Y20.97595
X17.35831 Y20.95558
X17.96865 Y20.86988
X18.40746 Y20.76968
X18.72084 Y20.51100
X19.02767 Y20.22289
X19.17235 Y20.07202
X19.58012 Y19.58253
X19.83786 Y19.21129
X20.13486 Y18.70392
X21.80478 Y17.05127
X23.28751 Y16.45516
X23.61367 Y16.35734
X23.99726 Y16.27807
X24.44547 Y16.23438
X31.74101 Y16.23080
X32.79275 Y15.89486
X33.48027 Y15.63669
X34.05403 Y15.44723
X34.75578 Y15.29321
X35.34583 Y15.21561
X35.93269 Y14.97253
X36.42550 Y14.67350
X37.15789 Y15.31515
X37.64453 Y15.83865
X37.97755 Y16.28015
X38.27711 Y16.79656
X38.33464 Y17.22887
X38.45349 Y17.80839
X38.47417 Y18.19869
X38.45349 Y18.46323
X38.33464 Y19.04276
X38.27793 Y19.46818
X38.22885 Y20.22180
X38.21379 Y20.71189
X37.71824 Y20.77986
X37.15789 Y20.80216
X36.59751 Y20.76559
X36.06457 Y20.67580
X35.22241 Y20.67582
X34.68761 Y20.82546
X33.42805 Y21.14242
X32.57611 Y21.39607
X31.96887 Y21.55271
X31.45544 Y21.65276
X31.24617 Y21.58039
X29.27848 Y21.57242
X28.89816 Y21.22091
X28.51782 Y20.91624
X28.13751 Y20.65845
X27.75717 Y20.44753
X27.37686 Y20.28347
X26.99652 Y20.16630
X26.61620 Y20.09599
X26.23586 Y20.07255
X25.38301 Y20.07255
X22.73574 Y21.15301
X22.58339 Y21.23221
X22.45484 Y21.33569
X22.35009 Y21.46350
X22.26914 Y21.61560
X21.26501 Y24.00462
X20.62516 Y24.46078
X20.16356 Y24.73761
X19.86092 Y24.87069
X19.61309 Y24.95514
X17.41284 Y25.48178
X16.76133 Y25.45565
X16.16438 Y25.49801
X15.55402 Y25.60617
X15.02900 Y25.75262
X8.54263 Y25.75262
X7.80872 Y25.56177
X7.19831 Y25.47604
X5.48330 Y25.42113
X4.01483 Y25.33081
X3.26641 Y25.33962
X2.64071 Y25.37394
X1.62580 Y25.49184
G04 P0 ( dwell for no time -- G64 should not smooth over this point )
G00 Z10.00000 ( retract )

G00 X15.78018 Y12.25943 ( rapid move to begin. )
F30.00000
G01 Z-0.10000
G04 P0 ( dwell for no time -- G64 should not smooth over this point )
F360.00000
G01 X15.78018 Y12.25943
X15.32174 Y13.13568
X14.86578 Y13.60754
X14.56865 Y14.08298
X14.45892 Y14.19270
X13.65428 Y14.80456
X12.94790 Y15.45097
X12.48710 Y15.97451
X12.17585 Y16.41604
X11.96452 Y16.79656
X11.90699 Y17.22884
X11.78814 Y17.80839
X11.76746 Y18.19869
X11.78814 Y18.46323
X11.90699 Y19.04278
X11.96370 Y19.46821
X12.01280 Y20.22182
X12.02784 Y20.71189
X11.59683 Y20.78093
X11.16579 Y20.80394
X9.86582 Y20.80394
X9.35728 Y20.77191
X8.84875 Y20.67580
X8.55241 Y20.67580
X8.01761 Y20.82546
X7.66613 Y20.89744
X7.15609 Y20.75688
X6.60133 Y20.54839
X6.13606 Y20.31415
X5.70837 Y20.03684
X5.49006 Y19.63138
X5.32694 Y19.23679
X5.22041 Y18.87286
X5.15851 Y18.52869
X5.13451 Y18.19592
X5.14546 Y17.86676
X5.19158 Y17.53397
X5.27642 Y17.18983
X5.40713 Y16.82592
X5.59648 Y16.43136
X5.86572 Y15.99194
X6.08073 Y15.69725
X6.60133 Y15.09999
X6.81027 Y14.89103
X7.34080 Y14.41157
X7.34080 Y14.37099
X7.81157 Y13.23449
X7.95114 Y12.53558
X8.13156 Y11.95659
X8.33928 Y11.47714
X8.48441 Y11.20932
X8.66915 Y10.91953
X9.14428 Y10.65776
X9.48713 Y10.51580
X14.48999 Y10.51580
X14.94277 Y10.86187
X15.76497 Y11.59284
X15.87856 Y12.04658
X15.78018 Y12.25943
G04 P0 ( dwell for no time -- G64 should not smooth over this point )
G00 Z10.00000 ( retract )

G00 X1.62580 Y2.61940 ( rapid move to begin. )
F30.00000
G01 Z-0.10000
G04 P0 ( dwell for no time -- G64 should not smooth over this point )
F360.00000
G01 X1.62580 Y2.61940
X1.62580 Y1.62580
X22.96396 Y1.62580
X21.99559 Y4.01904
X21.76704 Y4.65924
X21.58014 Y5.25777
X21.43491 Y5.81461
X21.52779 Y7.08794
X21.57199 Y7.47702
X21.67837 Y8.03485
X21.87882 Y8.66597
X21.92713 Y8.94362
X21.94494 Y9.21227
X21.92713 Y9.54801
X21.87882 Y9.82566
X21.67837 Y10.45677
X21.61977 Y10.71402
X21.52779 Y11.40368
X21.48296 Y12.00584
X20.77509 Y12.06134
X19.43857 Y12.09362
X18.01663 Y12.17587
X17.28290 Y12.16748
X16.65780 Y12.13319
X15.87856 Y12.04658
X15.76497 Y11.59284
X14.94277 Y10.86187
X14.48999 Y10.51580
X14.12463 Y10.03328
X13.65961 Y9.49645
X13.04940 Y8.89960
X12.54491 Y8.50300
X12.10937 Y8.23112
X11.59657 Y8.16582
X10.97539 Y8.01829
X10.70292 Y7.98355
X10.32871 Y7.98355
X10.05624 Y8.01829
X9.54537 Y8.14298
X9.25142 Y8.06719
X8.95744 Y7.92906
X8.66348 Y7.72861
X8.36950 Y7.46579
X7.69706 Y6.81085
X7.03565 Y6.27900
X1.62580 Y2.61940
G04 P0 ( dwell for no time -- G64 should not smooth over this point )
G00 Z10.00000 ( retract )

G00 X41.52692 Y5.64360 ( rapid move to begin. )
F30.00000
G01 Z-0.10000
G04 P0 ( dwell for no time -- G64 should not smooth over this point )
F360.00000
G01 X41.52692 Y5.64360
X41.65153 Y5.94581
X42.15821 Y7.46579
X42.26588 Y7.86112
X42.33499 Y8.28535
X41.60484 Y8.25271
X41.00901 Y8.19731
X40.63454 Y8.13021
X40.18539 Y8.01829
X39.80523 Y7.97788
X39.37983 Y8.00026
X39.10739 Y8.05208
X38.75537 Y8.14298
X38.50429 Y8.08212
X38.25321 Y7.97580
X37.02248 Y7.98172
X36.77079 Y8.01039
X36.51133 Y8.06610
X36.13371 Y8.19371
X34.30577 Y8.95085
X33.60461 Y9.65205
X33.42449 Y9.98270
X33.11761 Y10.44839
X32.99567 Y10.60732
X32.64182 Y11.00571
X32.25081 Y11.36236
X31.97944 Y11.57043
X31.49694 Y11.87820
X31.16494 Y12.05430
X30.73651 Y12.06134
X30.02867 Y12.00584
X29.98384 Y11.40368
X29.89186 Y10.71402
X29.83326 Y10.45677
X29.63281 Y9.82566
X29.58450 Y9.54801
X29.56669 Y9.27935
X29.57711 Y9.01369
X29.61594 Y8.74501
X29.68602 Y8.46734
X29.83326 Y8.03485
X29.92562 Y7.56521
X30.31510 Y7.27384
X30.70220 Y7.04339
X31.69519 Y5.91406
X32.50646 Y5.58535
X32.77852 Y5.50677
X33.21248 Y5.44172
X38.25321 Y5.43580
X38.43137 Y5.35569
X38.60952 Y5.29846
X38.78768 Y5.26412
X38.96581 Y5.25267
X40.48580 Y5.25267
X40.74610 Y5.27710
X41.00637 Y5.35040
X41.26664 Y5.47258
X41.52692 Y5.64360
G04 P0 ( dwell for no time -- G64 should not smooth over this point )
G00 Z10.00000 ( retract )

G00 X42.66834 Y9.01634 ( rapid move to begin. )
F30.00000
G01 Z-0.10000
G04 P0 ( dwell for no time -- G64 should not smooth over this point )
F360.00000
G01 X42.66834 Y9.01634
X42.87182 Y9.65642
X42.99643 Y10.22497
X43.00388 Y10.26980
X42.96336 Y10.51580
X38.69713 Y10.51580
X38.35428 Y10.65776
X37.87915 Y10.91953
X37.69441 Y11.20932
X37.54928 Y11.47714
X37.34156 Y11.95659
X37.16114 Y12.53558
X37.02157 Y13.23449
X36.42550 Y14.67350
X35.93269 Y14.97253
X35.34583 Y15.21561
X34.75578 Y15.29321
X34.05403 Y15.44723
X33.48027 Y15.63669
X32.79275 Y15.89486
X31.74101 Y16.23080
X24.59248 Y16.23080
X24.07343 Y16.26694
X23.68979 Y16.33855
X23.21136 Y16.48201
X21.80478 Y17.05127
X20.13486 Y18.70392
X19.83786 Y19.21129
X19.45086 Y19.74918
X19.02767 Y20.22289
X18.72084 Y20.51100
X18.40746 Y20.76968
X17.96865 Y20.86988
X17.56725 Y20.93361
X17.35831 Y20.95558
X16.76133 Y20.97595
X16.16438 Y20.93361
X15.76291 Y20.86986
X15.01922 Y20.67580
X14.17709 Y20.67580
X13.64414 Y20.76559
X13.08374 Y20.80216
X12.52342 Y20.77986
X12.02784 Y20.71189
X12.01280 Y20.22182
X11.96370 Y19.46821
X11.90699 Y19.04278
X11.78814 Y18.46323
X11.76746 Y18.19869
X11.78814 Y17.80839
X11.90699 Y17.22884
X11.96452 Y16.79656
X12.17585 Y16.41604
X12.48710 Y15.97451
X12.94790 Y15.45097
X13.65428 Y14.80456
X14.45892 Y14.19270
X14.56865 Y14.08298
X14.86578 Y13.60754
X15.32174 Y13.13568
X15.70761 Y12.41153
X15.87856 Y12.04658
X16.65780 Y12.13319
X17.57129 Y12.17503
X18.01663 Y12.17587
X19.43857 Y12.09362
X20.77509 Y12.06134
X21.48296 Y12.00584
X21.87440 Y12.06817
X22.26582 Y12.08895
X24.16579 Y12.08895
X24.53955 Y12.07003
X24.91328 Y12.01318
X25.28705 Y11.91844
X25.66078 Y11.78580
X25.85085 Y11.78580
X26.22459 Y11.91844
X26.59835 Y12.01318
X26.97208 Y12.07003
X27.34582 Y12.08895
X29.24579 Y12.08895
X29.63723 Y12.06817
X30.02867 Y12.00584
X30.73651 Y12.06134
X31.16494 Y12.05430
X31.49694 Y11.87820
X31.97944 Y11.57043
X32.25081 Y11.36236
X32.64182 Y11.00571
X32.99567 Y10.60732
X33.11761 Y10.44839
X33.42449 Y9.98270
X33.60461 Y9.65205
X34.30577 Y8.95085
X36.13371 Y8.19371
X36.51133 Y8.06610
X36.77079 Y8.01039
X37.02248 Y7.98172
X38.25321 Y7.97580
X38.50429 Y8.08212
X38.75537 Y8.14298
X39.10739 Y8.05208
X39.37983 Y8.00026
X39.80523 Y7.97788
X40.18539 Y8.01829
X40.63454 Y8.13021
X41.00901 Y8.19731
X41.60484 Y8.25271
X42.33499 Y8.28535
X42.66834 Y9.01634
G04 P0 ( dwell for no time -- G64 should not smooth over this point )
G00 Z10.00000 ( retract )

G00 X45.10712 Y18.07570 ( rapid move to begin. )
F30.00000
G01 Z-0.10000
G04 P0 ( dwell for no time -- G64 should not smooth over this point )
F360.00000
G01 X45.10712 Y18.07570
X45.08312 Y18.52869
X45.05005 Y18.73765
X44.96521 Y19.08180
X44.75160 Y19.63130
X44.53324 Y20.03686
X44.33009 Y20.17679
X43.91408 Y20.41812
X43.43136 Y20.63493
X43.08554 Y20.75690
X42.57553 Y20.89744
X42.22394 Y20.82543
X41.68922 Y20.67580
X41.39288 Y20.67580
X40.88435 Y20.77191
X40.37579 Y20.80394
X39.07582 Y20.80394
X38.64480 Y20.78093
X38.21379 Y20.71189
X38.22885 Y20.22180
X38.27793 Y19.46818
X38.33464 Y19.04276
X38.45349 Y18.46323
X38.47417 Y18.19869
X38.45349 Y17.80839
X38.33464 Y17.22887
X38.27711 Y16.79656
X37.97755 Y16.28015
X37.64453 Y15.83865
X37.15789 Y15.31515
X36.42550 Y14.67350
X37.02157 Y13.23449
X37.16114 Y12.53558
X37.34156 Y11.95659
X37.54928 Y11.47714
X37.69441 Y11.20932
X37.87915 Y10.91953
X38.35428 Y10.65776
X38.69713 Y10.51580
X42.96336 Y10.51580
X43.01028 Y10.80216
X43.06849 Y11.35453
X43.07682 Y12.05824
X43.01028 Y12.76946
X42.90080 Y13.35255
X42.90080 Y14.41157
X43.43133 Y14.89103
X43.99171 Y15.48833
X44.16090 Y15.69725
X44.51162 Y16.20095
X44.75157 Y16.64025
X44.96521 Y17.18983
X45.05005 Y17.53397
X45.09618 Y17.86676
X45.10712 Y18.07570
G04 P0 ( dwell for no time -- G64 should not smooth over this point )
G00 Z10.00000 ( retract )

G00 X48.61580 Y25.49187 ( rapid move to begin. )
F30.00000
G01 Z-0.10000
G04 P0 ( dwell for no time -- G64 should not smooth over this point )
F360.00000
G01 X48.61580 Y25.49187
X47.60089 Y25.37396
X46.97519 Y25.33962
X46.22665 Y25.33081
X44.75871 Y25.42113
X43.04332 Y25.47604
X42.43299 Y25.56174
X41.69900 Y25.75262
X35.75235 Y25.75262
X35.12350 Y26.02692
X34.46224 Y26.11254
X34.21057 Y26.16403
X33.69074 Y26.31155
X33.27133 Y26.48132
X32.92307 Y26.66809
X32.62683 Y26.87040
X32.17464 Y27.24830
X31.73456 Y27.55872
X31.68487 Y27.85628
X31.62856 Y28.41675
X31.49049 Y28.59057
X31.32884 Y28.74081
X31.14365 Y28.86750
X30.93486 Y28.97063
X28.76514 Y29.86935
X28.71805 Y29.86935
X27.47477 Y30.38434
X26.74389 Y31.11520
X26.61689 Y31.22635
X26.48989 Y31.30572
X26.36289 Y31.35335
X26.23586 Y31.36922
X22.73574 Y31.36922
X22.60874 Y31.35335
X22.48174 Y31.30572
X22.35474 Y31.22635
X22.22772 Y31.11520
X21.33163 Y30.21911
X20.80115 Y28.93839
X21.61898 Y27.61508
X21.84875 Y27.30294
X22.11146 Y27.05671
X22.40714 Y26.87637
X22.73574 Y26.76197
X24.41557 Y26.36540
X26.18509 Y26.36540
X26.49812 Y26.01490
X26.68544 Y25.71518
X26.79784 Y25.41544
X26.83530 Y25.11572
X26.83530 Y24.61534
X26.87277 Y24.31562
X26.98516 Y24.01590
X27.17251 Y23.71618
X27.43474 Y23.41646
X29.27848 Y21.57242
X31.24617 Y21.58039
X31.45544 Y21.65276
X31.96887 Y21.55271
X32.57611 Y21.39607
X33.42805 Y21.14242
X34.68761 Y20.82546
X35.22241 Y20.67582
X36.06457 Y20.67580
X36.59751 Y20.76559
X37.15789 Y20.80216
X37.71824 Y20.77986
X38.21379 Y20.71189
X38.64480 Y20.78093
X39.07582 Y20.80394
X40.37579 Y20.80394
X40.88435 Y20.77191
X41.39288 Y20.67580
X41.68922 Y20.67580
X42.22394 Y20.82543
X42.57553 Y20.89744
X43.08554 Y20.75690
X43.64027 Y20.54839
X44.10560 Y20.31415
X44.53324 Y20.03686
X44.75160 Y19.63130
X44.96521 Y19.08180
X45.05005 Y18.73765
X45.09618 Y18.40486
X45.10712 Y18.19592
X45.08312 Y17.74294
X45.05005 Y17.53397
X44.96521 Y17.18983
X44.75157 Y16.64025
X44.51162 Y16.20095
X44.16090 Y15.69725
X43.99171 Y15.48833
X43.43133 Y14.89103
X42.90080 Y14.41157
X42.90080 Y13.35255
X43.01028 Y12.76946
X43.06849 Y12.21709
X43.07682 Y11.51338
X43.01028 Y10.80216
X42.96336 Y10.51580
X43.00388 Y10.26980
X42.87182 Y9.65642
X42.66834 Y9.01634
X42.33499 Y8.28535
X42.26588 Y7.86112
X42.15821 Y7.46579
X41.65153 Y5.94581
X41.52692 Y5.64360
X41.26664 Y5.47258
X41.00637 Y5.35040
X40.74610 Y5.27710
X40.48580 Y5.25267
X38.96581 Y5.25267
X38.78768 Y5.26412
X38.60952 Y5.29846
X38.43137 Y5.35569
X38.25321 Y5.43580
X33.21248 Y5.44172
X32.77852 Y5.50677
X32.50646 Y5.58535
X31.69519 Y5.91406
X30.70220 Y7.04339
X30.31510 Y7.27384
X29.92562 Y7.56521
X29.83326 Y8.03485
X29.68602 Y8.46734
X29.61594 Y8.74501
X29.57711 Y9.01369
X29.56669 Y9.27935
X29.58450 Y9.54801
X29.63281 Y9.82566
X29.83326 Y10.45677
X29.89186 Y10.71402
X29.98384 Y11.40368
X30.02867 Y12.00584
X29.63723 Y12.06817
X29.24579 Y12.08895
X27.34582 Y12.08895
X26.97208 Y12.07003
X26.59835 Y12.01318
X26.22459 Y11.91844
X25.85085 Y11.78580
X25.66078 Y11.78580
X25.28705 Y11.91844
X24.91328 Y12.01318
X24.53955 Y12.07003
X24.16579 Y12.08895
X22.26582 Y12.08895
X21.87440 Y12.06817
X21.48296 Y12.00584
X21.52779 Y11.40368
X21.61977 Y10.71402
X21.67837 Y10.45677
X21.87882 Y9.82566
X21.92713 Y9.54801
X21.94494 Y9.21227
X21.92713 Y8.94362
X21.87882 Y8.66597
X21.67837 Y8.03485
X21.57199 Y7.47702
X21.52779 Y7.08794
X21.43491 Y5.81461
X21.58014 Y5.25777
X21.76704 Y4.65924
X21.99559 Y4.01904
X22.96396 Y1.62580
X48.61580 Y1.62580
X48.61580 Y25.49187

G04 P0 ( dwell for no time -- G64 should not smooth over this point )
G00 Z50.000 ( retract )

M5 ( Spindle off. )
M9 ( Coolant off. )
M2 ( Program end. )

