( pcb2gcode 1.3.2 )
( Software-independent Gcode )

( This file uses 2 drill bit sizes. )
( Bit sizes: [0.8mm] [1.001mm] )

G94       (Millimeters per minute feed rate.)
G21       (Units == Millimeters.)
G91.1     (Incremental arc distance mode.)
G90       (Absolute coordinates.)
S10000     (RPM spindle speed.)

G00 Z50.00000 (Retract)
T1
M5      (Spindle stop.)
(MSG, Change tool bit to drill size 0.80000 mm)
M6      (Tool change.)
M0      (Temporary machine stop.)
M3      (Spindle on clockwise.)
G0 Z10.00000

F60.00000
G0 X10.51580 Y6.70580
G1 Z-2.20000
G1 Z10.00000
G0 X10.51580 Y9.24580
G1 Z-2.20000
G1 Z10.00000
G0 X10.51580 Y11.78580
G1 Z-2.20000
G1 Z10.00000
G0 X10.51580 Y18.13580
G1 Z-2.20000
G1 Z10.00000
G0 X13.01580 Y18.13580
G1 Z-2.20000
G1 Z10.00000
G0 X37.22580 Y18.13580
G1 Z-2.20000
G1 Z10.00000
G0 X39.72580 Y18.13580
G1 Z-2.20000
G1 Z10.00000
G0 X39.72580 Y11.78580
G1 Z-2.20000
G1 Z10.00000
G0 X39.72580 Y9.24580
G1 Z-2.20000
G1 Z10.00000
G0 X39.72580 Y6.70580
G1 Z-2.20000
G1 Z10.00000

G00 Z50.00000 (Retract)
T2
M5      (Spindle stop.)
(MSG, Change tool bit to drill size 1.00100 mm)
M6      (Tool change.)
M0      (Temporary machine stop.)
M3      (Spindle on clockwise.)
G0 Z10.00000

F60.00000
G0 X6.70580 Y18.13580
G1 Z-2.20000
G1 Z10.00000
G0 X6.70580 Y28.29580
G1 Z-2.20000
G1 Z10.00000
G0 X16.86580 Y28.29580
G1 Z-2.20000
G1 Z10.00000
G0 X23.48680 Y29.36480
G1 Z-2.20000
G1 Z10.00000
G0 X23.48680 Y23.36580
G1 Z-2.20000
G1 Z10.00000
G0 X29.18480 Y27.36480
G1 Z-2.20000
G1 Z10.00000
G0 X33.37580 Y28.29580
G1 Z-2.20000
G1 Z10.00000
G0 X33.37580 Y18.13580
G1 Z-2.20000
G1 Z10.00000
G0 X30.83580 Y9.24580
G1 Z-2.20000
G1 Z10.00000
G0 X28.29580 Y9.24580
G1 Z-2.20000
G1 Z10.00000
G0 X23.21580 Y9.24580
G1 Z-2.20000
G1 Z10.00000
G0 X20.67580 Y9.24580
G1 Z-2.20000
G1 Z10.00000
G0 X16.86580 Y18.13580
G1 Z-2.20000
G1 Z10.00000
G0 X43.53580 Y18.13580
G1 Z-2.20000
G1 Z10.00000
G0 X43.53580 Y28.29580
G1 Z-2.20000
G1 Z10.00000

G00 Z50.000 ( All done -- retract )

M5      (Spindle off.)
M9      (Coolant off.)
M2      (Program end.)

