( pcb2gcode 1.3.2 )
( Software-independent Gcode )

G94 ( Millimeters per minute feed rate. )
G21 ( Units == Millimeters. )

G90 ( Absolute coordinates. )
S10000 ( RPM spindle speed. )
F360.00000 ( Feedrate. )

F360.00000 ( Feedrate. )
M3 ( Spindle on clockwise. )
G04 P0 ( dwell for no time -- G64 should not smooth over this point )
G00 Z10.00000 ( retract )

G00 X50.11580 Y1.62580 ( rapid move to begin. )
G01 Z-0.20000 F30.00000 ( plunge. )
G04 P0 ( dwell for no time -- G64 should not smooth over this point )
F360.00000
G01 X50.11580 Y1.62580
X50.11580 Y13.50080
X50.11580 Y21.50080
X50.11580 Y33.37580
X50.08700 Y33.66846
X50.00163 Y33.94984
X49.86302 Y34.20917
X49.67648 Y34.43648
X49.44918 Y34.62302
X49.18984 Y34.76162
X48.90846 Y34.84699
X48.61580 Y34.87580
X29.12080 Y34.87580
X21.12080 Y34.87580
X1.62580 Y34.87580
X1.33317 Y34.84699
X1.05179 Y34.76162
X0.79245 Y34.62302
X0.56515 Y34.43648
X0.37861 Y34.20917
X0.24000 Y33.94984
X0.15463 Y33.66846
X0.12581 Y33.37580
X0.12581 Y21.50080
X0.12581 Y13.50080
X0.12581 Y1.62580
X0.15463 Y1.33317
X0.24000 Y1.05178
X0.37861 Y0.79245
X0.56515 Y0.56515
X0.79245 Y0.37861
X1.05179 Y0.24000
X1.33317 Y0.15463
X1.62580 Y0.12580
X21.12080 Y0.12580
X29.12080 Y0.12580
X48.61580 Y0.12580
X48.90846 Y0.15463
X49.18984 Y0.24000
X49.44918 Y0.37861
X49.67648 Y0.56515
X49.86302 Y0.79245
X50.00163 Y1.05178
X50.08700 Y1.33317
X50.11580 Y1.62580
G01 Z-0.40000 F30.00000 ( plunge. )
G04 P0 ( dwell for no time -- G64 should not smooth over this point )
F360.00000
G01 X50.11580 Y1.62580
X50.11580 Y13.50080
X50.11580 Y21.50080
X50.11580 Y33.37580
X50.08700 Y33.66846
X50.00163 Y33.94984
X49.86302 Y34.20917
X49.67648 Y34.43648
X49.44918 Y34.62302
X49.18984 Y34.76162
X48.90846 Y34.84699
X48.61580 Y34.87580
X29.12080 Y34.87580
X21.12080 Y34.87580
X1.62580 Y34.87580
X1.33317 Y34.84699
X1.05179 Y34.76162
X0.79245 Y34.62302
X0.56515 Y34.43648
X0.37861 Y34.20917
X0.24000 Y33.94984
X0.15463 Y33.66846
X0.12581 Y33.37580
X0.12581 Y21.50080
X0.12581 Y13.50080
X0.12581 Y1.62580
X0.15463 Y1.33317
X0.24000 Y1.05178
X0.37861 Y0.79245
X0.56515 Y0.56515
X0.79245 Y0.37861
X1.05179 Y0.24000
X1.33317 Y0.15463
X1.62580 Y0.12580
X21.12080 Y0.12580
X29.12080 Y0.12580
X48.61580 Y0.12580
X48.90846 Y0.15463
X49.18984 Y0.24000
X49.44918 Y0.37861
X49.67648 Y0.56515
X49.86302 Y0.79245
X50.00163 Y1.05178
X50.08700 Y1.33317
X50.11580 Y1.62580
G01 Z-0.60000 F30.00000 ( plunge. )
G04 P0 ( dwell for no time -- G64 should not smooth over this point )
F360.00000
G01 X50.11580 Y1.62580
X50.11580 Y13.50080
X50.11580 Y21.50080
X50.11580 Y33.37580
X50.08700 Y33.66846
X50.00163 Y33.94984
X49.86302 Y34.20917
X49.67648 Y34.43648
X49.44918 Y34.62302
X49.18984 Y34.76162
X48.90846 Y34.84699
X48.61580 Y34.87580
X29.12080 Y34.87580
X21.12080 Y34.87580
X1.62580 Y34.87580
X1.33317 Y34.84699
X1.05179 Y34.76162
X0.79245 Y34.62302
X0.56515 Y34.43648
X0.37861 Y34.20917
X0.24000 Y33.94984
X0.15463 Y33.66846
X0.12581 Y33.37580
X0.12581 Y21.50080
X0.12581 Y13.50080
X0.12581 Y1.62580
X0.15463 Y1.33317
X0.24000 Y1.05178
X0.37861 Y0.79245
X0.56515 Y0.56515
X0.79245 Y0.37861
X1.05179 Y0.24000
X1.33317 Y0.15463
X1.62580 Y0.12580
X21.12080 Y0.12580
X29.12080 Y0.12580
X48.61580 Y0.12580
X48.90846 Y0.15463
X49.18984 Y0.24000
X49.44918 Y0.37861
X49.67648 Y0.56515
X49.86302 Y0.79245
X50.00163 Y1.05178
X50.08700 Y1.33317
X50.11580 Y1.62580
G01 Z-0.80000 F30.00000 ( plunge. )
G04 P0 ( dwell for no time -- G64 should not smooth over this point )
F360.00000
G01 X50.11580 Y1.62580
X50.11580 Y13.50080
X50.11580 Y21.50080
X50.11580 Y33.37580
X50.08700 Y33.66846
X50.00163 Y33.94984
X49.86302 Y34.20917
X49.67648 Y34.43648
X49.44918 Y34.62302
X49.18984 Y34.76162
X48.90846 Y34.84699
X48.61580 Y34.87580
X29.12080 Y34.87580
X21.12080 Y34.87580
X1.62580 Y34.87580
X1.33317 Y34.84699
X1.05179 Y34.76162
X0.79245 Y34.62302
X0.56515 Y34.43648
X0.37861 Y34.20917
X0.24000 Y33.94984
X0.15463 Y33.66846
X0.12581 Y33.37580
X0.12581 Y21.50080
X0.12581 Y13.50080
X0.12581 Y1.62580
X0.15463 Y1.33317
X0.24000 Y1.05178
X0.37861 Y0.79245
X0.56515 Y0.56515
X0.79245 Y0.37861
X1.05179 Y0.24000
X1.33317 Y0.15463
X1.62580 Y0.12580
X21.12080 Y0.12580
X29.12080 Y0.12580
X48.61580 Y0.12580
X48.90846 Y0.15463
X49.18984 Y0.24000
X49.44918 Y0.37861
X49.67648 Y0.56515
X49.86302 Y0.79245
X50.00163 Y1.05178
X50.08700 Y1.33317
X50.11580 Y1.62580
G01 Z-1.00000 F30.00000 ( plunge. )
G04 P0 ( dwell for no time -- G64 should not smooth over this point )
F360.00000
G01 X50.11580 Y1.62580
X50.11580 Y13.50080
Z-0.80000
X50.11580 Y21.50080
Z-1.00000 F30.00000
F360.00000
G01 X50.11580 Y33.37580
X50.08700 Y33.66846
X50.00163 Y33.94984
X49.86302 Y34.20917
X49.67648 Y34.43648
X49.44918 Y34.62302
X49.18984 Y34.76162
X48.90846 Y34.84699
X48.61580 Y34.87580
X29.12080 Y34.87580
Z-0.80000
X21.12080 Y34.87580
Z-1.00000 F30.00000
F360.00000
G01 X1.62580 Y34.87580
X1.33317 Y34.84699
X1.05179 Y34.76162
X0.79245 Y34.62302
X0.56515 Y34.43648
X0.37861 Y34.20917
X0.24000 Y33.94984
X0.15463 Y33.66846
X0.12581 Y33.37580
X0.12581 Y21.50080
Z-0.80000
X0.12581 Y13.50080
Z-1.00000 F30.00000
F360.00000
G01 X0.12581 Y1.62580
X0.15463 Y1.33317
X0.24000 Y1.05178
X0.37861 Y0.79245
X0.56515 Y0.56515
X0.79245 Y0.37861
X1.05179 Y0.24000
X1.33317 Y0.15463
X1.62580 Y0.12580
X21.12080 Y0.12580
Z-0.80000
X29.12080 Y0.12580
Z-1.00000 F30.00000
F360.00000
G01 X48.61580 Y0.12580
X48.90846 Y0.15463
X49.18984 Y0.24000
X49.44918 Y0.37861
X49.67648 Y0.56515
X49.86302 Y0.79245
X50.00163 Y1.05178
X50.08700 Y1.33317
X50.11580 Y1.62580
G01 Z-1.20000 F30.00000 ( plunge. )
G04 P0 ( dwell for no time -- G64 should not smooth over this point )
F360.00000
G01 X50.11580 Y1.62580
X50.11580 Y13.50080
Z-0.80000
X50.11580 Y21.50080
Z-1.20000 F30.00000
F360.00000
G01 X50.11580 Y33.37580
X50.08700 Y33.66846
X50.00163 Y33.94984
X49.86302 Y34.20917
X49.67648 Y34.43648
X49.44918 Y34.62302
X49.18984 Y34.76162
X48.90846 Y34.84699
X48.61580 Y34.87580
X29.12080 Y34.87580
Z-0.80000
X21.12080 Y34.87580
Z-1.20000 F30.00000
F360.00000
G01 X1.62580 Y34.87580
X1.33317 Y34.84699
X1.05179 Y34.76162
X0.79245 Y34.62302
X0.56515 Y34.43648
X0.37861 Y34.20917
X0.24000 Y33.94984
X0.15463 Y33.66846
X0.12581 Y33.37580
X0.12581 Y21.50080
Z-0.80000
X0.12581 Y13.50080
Z-1.20000 F30.00000
F360.00000
G01 X0.12581 Y1.62580
X0.15463 Y1.33317
X0.24000 Y1.05178
X0.37861 Y0.79245
X0.56515 Y0.56515
X0.79245 Y0.37861
X1.05179 Y0.24000
X1.33317 Y0.15463
X1.62580 Y0.12580
X21.12080 Y0.12580
Z-0.80000
X29.12080 Y0.12580
Z-1.20000 F30.00000
F360.00000
G01 X48.61580 Y0.12580
X48.90846 Y0.15463
X49.18984 Y0.24000
X49.44918 Y0.37861
X49.67648 Y0.56515
X49.86302 Y0.79245
X50.00163 Y1.05178
X50.08700 Y1.33317
X50.11580 Y1.62580
G01 Z-1.40000 F30.00000 ( plunge. )
G04 P0 ( dwell for no time -- G64 should not smooth over this point )
F360.00000
G01 X50.11580 Y1.62580
X50.11580 Y13.50080
Z-0.80000
X50.11580 Y21.50080
Z-1.40000 F30.00000
F360.00000
G01 X50.11580 Y33.37580
X50.08700 Y33.66846
X50.00163 Y33.94984
X49.86302 Y34.20917
X49.67648 Y34.43648
X49.44918 Y34.62302
X49.18984 Y34.76162
X48.90846 Y34.84699
X48.61580 Y34.87580
X29.12080 Y34.87580
Z-0.80000
X21.12080 Y34.87580
Z-1.40000 F30.00000
F360.00000
G01 X1.62580 Y34.87580
X1.33317 Y34.84699
X1.05179 Y34.76162
X0.79245 Y34.62302
X0.56515 Y34.43648
X0.37861 Y34.20917
X0.24000 Y33.94984
X0.15463 Y33.66846
X0.12581 Y33.37580
X0.12581 Y21.50080
Z-0.80000
X0.12581 Y13.50080
Z-1.40000 F30.00000
F360.00000
G01 X0.12581 Y1.62580
X0.15463 Y1.33317
X0.24000 Y1.05178
X0.37861 Y0.79245
X0.56515 Y0.56515
X0.79245 Y0.37861
X1.05179 Y0.24000
X1.33317 Y0.15463
X1.62580 Y0.12580
X21.12080 Y0.12580
Z-0.80000
X29.12080 Y0.12580
Z-1.40000 F30.00000
F360.00000
G01 X48.61580 Y0.12580
X48.90846 Y0.15463
X49.18984 Y0.24000
X49.44918 Y0.37861
X49.67648 Y0.56515
X49.86302 Y0.79245
X50.00163 Y1.05178
X50.08700 Y1.33317
X50.11580 Y1.62580
G01 Z-1.60000 F30.00000 ( plunge. )
G04 P0 ( dwell for no time -- G64 should not smooth over this point )
F360.00000
G01 X50.11580 Y1.62580
X50.11580 Y13.50080
Z-0.80000
X50.11580 Y21.50080
Z-1.60000 F30.00000
F360.00000
G01 X50.11580 Y33.37580
X50.08700 Y33.66846
X50.00163 Y33.94984
X49.86302 Y34.20917
X49.67648 Y34.43648
X49.44918 Y34.62302
X49.18984 Y34.76162
X48.90846 Y34.84699
X48.61580 Y34.87580
X29.12080 Y34.87580
Z-0.80000
X21.12080 Y34.87580
Z-1.60000 F30.00000
F360.00000
G01 X1.62580 Y34.87580
X1.33317 Y34.84699
X1.05179 Y34.76162
X0.79245 Y34.62302
X0.56515 Y34.43648
X0.37861 Y34.20917
X0.24000 Y33.94984
X0.15463 Y33.66846
X0.12581 Y33.37580
X0.12581 Y21.50080
Z-0.80000
X0.12581 Y13.50080
Z-1.60000 F30.00000
F360.00000
G01 X0.12581 Y1.62580
X0.15463 Y1.33317
X0.24000 Y1.05178
X0.37861 Y0.79245
X0.56515 Y0.56515
X0.79245 Y0.37861
X1.05179 Y0.24000
X1.33317 Y0.15463
X1.62580 Y0.12580
X21.12080 Y0.12580
Z-0.80000
X29.12080 Y0.12580
Z-1.60000 F30.00000
F360.00000
G01 X48.61580 Y0.12580
X48.90846 Y0.15463
X49.18984 Y0.24000
X49.44918 Y0.37861
X49.67648 Y0.56515
X49.86302 Y0.79245
X50.00163 Y1.05178
X50.08700 Y1.33317
X50.11580 Y1.62580

G04 P0 ( dwell for no time -- G64 should not smooth over this point )
G00 Z50.000 ( retract )

M5 ( Spindle off. )
M9 ( Coolant off. )
M2 ( Program end. )

