( pcb2gcode 1.3.2 )
( Software-independent Gcode )

G94 ( Millimeters per minute feed rate. )
G21 ( Units == Millimeters. )

G90 ( Absolute coordinates. )
S10000 ( RPM spindle speed. )

G00 Z50.00000 (Retract)
T1
M5      (Spindle stop.)
(MSG, Change tool bit to trace milling tool)
M6      (trace milling tool)
M0      (Temporary machine stop.)
M3      (Spindle on clockwise.)
G0 Z10.00000

F360.00000 ( Feedrate. )

F360.00000 ( Feedrate. )
M3 ( Spindle on clockwise. )
G04 P0 ( dwell for no time -- G64 should not smooth over this point )
G00 Z10.00000 ( retract )

G00 X1.62580 Y24.22923 ( rapid move to begin. )
F30.00000
G01 Z-0.10000
G04 P0 ( dwell for no time -- G64 should not smooth over this point )
F360.00000
G01 X1.62580 Y24.22923
X2.31318 Y24.20020
X2.98483 Y24.19888
X3.62300 Y24.23104
X4.38274 Y24.30287
X5.09547 Y24.42171
X6.81027 Y24.83551
X8.22775 Y25.13436
X8.70179 Y25.25849
X14.86982 Y25.25849
X15.55295 Y25.08994
X16.06052 Y25.00932
X16.76133 Y24.96152
X17.34373 Y24.97643
X20.50082 Y24.23114
X20.73036 Y24.16901
X21.22927 Y23.98255
X21.36562 Y23.76314
X21.53854 Y23.43155
X22.29411 Y21.61560
X22.37024 Y21.47090
X22.46920 Y21.34905
X22.59104 Y21.25009
X22.73574 Y21.17397
X25.39479 Y20.07255
X26.23586 Y20.07255
X26.61620 Y20.09599
X26.99652 Y20.16630
X27.37686 Y20.28347
X27.75717 Y20.44753
X28.13751 Y20.65845
X28.51782 Y20.91624
X28.89816 Y21.22091
X29.27848 Y21.57242
X27.43474 Y23.41646
X27.17251 Y23.71618
X26.98516 Y24.01590
X26.87277 Y24.31562
X26.83530 Y24.61534
X26.83530 Y25.11572
X26.79784 Y25.41544
X26.68544 Y25.71518
X26.49812 Y26.01490
X26.18509 Y26.36540
X24.41557 Y26.36540
X22.73574 Y26.76197
X22.40714 Y26.87637
X22.11146 Y27.05671
X21.84875 Y27.30294
X21.61898 Y27.61508
X20.80115 Y28.93839
X21.33163 Y30.21911
X22.22772 Y31.11520
X22.35474 Y31.22635
X22.48174 Y31.30572
X22.60874 Y31.35335
X22.73574 Y31.36922
X26.23586 Y31.36922
X26.36289 Y31.35335
X26.48989 Y31.30572
X26.61689 Y31.22635
X26.74389 Y31.11520
X27.47477 Y30.38434
X28.71805 Y29.86935
X28.76514 Y29.86935
X30.93486 Y28.97063
X31.14365 Y28.86750
X31.32884 Y28.74081
X31.49049 Y28.59057
X31.62856 Y28.41675
X31.68487 Y27.85628
X31.73456 Y27.55872
X32.15752 Y27.26138
X32.62892 Y26.87505
X32.92566 Y26.68028
X33.27133 Y26.50294
X33.48030 Y26.41640
X33.91167 Y26.27713
X34.43902 Y26.16466
X35.10219 Y26.09250
X36.47917 Y25.52214
X41.62410 Y25.52214
X42.12605 Y25.38608
X42.78594 Y25.27005
X43.43133 Y25.22517
X44.07675 Y25.24810
X45.71563 Y25.47335
X47.81989 Y25.70129
X48.61580 Y25.81965
X48.61580 Y33.37580
X1.62580 Y33.37580
X1.62580 Y24.22923
G04 P0 ( dwell for no time -- G64 should not smooth over this point )
G00 Z10.00000 ( retract )

G00 X1.62580 Y24.22923 ( rapid move to begin. )
F30.00000
G01 Z-0.10000
G04 P0 ( dwell for no time -- G64 should not smooth over this point )
F360.00000
G01 X1.62580 Y24.22923
X1.62580 Y7.09114
X2.66507 Y7.60524
X3.58518 Y8.03475
X4.45623 Y8.41524
X5.60382 Y8.87201
X7.36028 Y9.50866
X8.15048 Y10.05111
X9.72977 Y11.17577
X10.03541 Y11.35537
X10.31220 Y11.48303
X10.39470 Y11.51356
X10.47034 Y11.51625
X13.02659 Y11.51366
X13.11951 Y11.71161
X13.20096 Y11.93574
X13.25316 Y12.14470
X13.28158 Y12.34409
X13.28788 Y12.59001
X13.27010 Y12.78636
X13.23030 Y12.98991
X13.16436 Y13.20574
X12.99121 Y13.58143
X12.71260 Y13.99794
X12.41011 Y14.34594
X11.81877 Y14.93911
X11.02743 Y15.26174
X10.44407 Y15.44703
X9.52904 Y16.36204
X8.88853 Y16.31111
X8.15919 Y16.31320
X7.60595 Y16.37093
X7.16836 Y16.46199
X6.81030 Y16.57540
X6.60133 Y16.66196
X6.24860 Y16.85198
X6.01962 Y17.01363
X5.86024 Y17.14977
X5.67088 Y17.34454
X5.52935 Y17.52348
X5.46397 Y17.90024
X5.45302 Y18.10918
X5.46397 Y18.37138
X5.52935 Y18.74817
X5.62907 Y18.87814
X5.86024 Y19.12188
X6.01965 Y19.25802
X6.24860 Y19.41964
X6.50872 Y19.56562
X6.88889 Y19.72576
X8.39582 Y21.23272
X8.81906 Y21.39246
X9.13120 Y21.44697
X9.50501 Y21.45167
X9.68543 Y21.54778
X9.86582 Y21.57981
X11.16579 Y21.57981
X11.29281 Y21.56394
X11.41981 Y21.51631
X11.54681 Y21.43694
X11.81727 Y21.18235
X12.14450 Y21.36894
X12.49746 Y21.50486
X12.75827 Y21.56094
X13.08374 Y21.57803
X13.33139 Y21.55172
X13.68742 Y21.45484
X16.90296 Y21.45393
X17.21648 Y21.41489
X17.46194 Y21.34021
X17.75922 Y21.19792
X18.05925 Y20.99675
X18.42389 Y20.67580
X19.11815 Y19.98154
X19.50423 Y19.82162
X23.09205 Y16.24606
X23.46495 Y15.94510
X23.81654 Y15.71043
X24.28938 Y15.45364
X24.56388 Y15.32907
X31.44251 Y15.32900
X31.95061 Y15.19141
X32.61830 Y15.07413
X33.27133 Y15.02885
X33.92439 Y15.05219
X34.59216 Y15.14701
X34.80110 Y15.19143
X35.48840 Y15.38727
X36.12972 Y15.51559
X36.65461 Y15.67517
X37.68161 Y16.08831
X38.05588 Y16.32280
X38.59296 Y16.61642
X38.36845 Y17.35693
X38.21242 Y18.02894
X38.22885 Y18.58982
X38.27793 Y19.34344
X38.33464 Y19.76887
X38.43198 Y20.21250
X38.46705 Y20.47707
X38.46705 Y20.87455
X38.43198 Y21.13912
X38.33546 Y21.57874
X38.05143 Y21.69650
X37.65347 Y21.80346
X37.40290 Y21.83594
X37.04874 Y21.83594
X36.79817 Y21.80346
X36.53610 Y21.74067
X36.25560 Y21.64082
X35.94753 Y21.49228
X35.59960 Y21.27559
X35.42355 Y21.14715
X35.33287 Y21.10961
X34.82292 Y20.94042
X34.23765 Y20.82614
X33.27133 Y21.25464
X32.78317 Y21.42680
X31.92836 Y21.64372
X31.60263 Y21.70364
X31.24617 Y21.58039
X29.27848 Y21.57242
X28.89816 Y21.22091
X28.51782 Y20.91624
X28.13751 Y20.65845
X27.75717 Y20.44753
X27.37686 Y20.28347
X26.99652 Y20.16630
X26.61620 Y20.09599
X26.23586 Y20.07255
X25.39479 Y20.07255
X22.73574 Y21.17397
X22.59104 Y21.25009
X22.46920 Y21.34905
X22.37024 Y21.47090
X22.29411 Y21.61560
X21.53854 Y23.43155
X21.36562 Y23.76314
X21.22927 Y23.98255
X20.73036 Y24.16901
X20.50082 Y24.23114
X17.34373 Y24.97643
X16.76133 Y24.96152
X16.06052 Y25.00932
X15.55295 Y25.08994
X14.86982 Y25.25849
X8.70179 Y25.25849
X8.22775 Y25.13436
X6.81027 Y24.83551
X5.09547 Y24.42171
X4.38274 Y24.30287
X3.62300 Y24.23104
X2.98483 Y24.19888
X2.31318 Y24.20020
X1.62580 Y24.22923
G04 P0 ( dwell for no time -- G64 should not smooth over this point )
G00 Z10.00000 ( retract )

G00 X1.62580 Y7.09117 ( rapid move to begin. )
F30.00000
G01 Z-0.10000
G04 P0 ( dwell for no time -- G64 should not smooth over this point )
F360.00000
G01 X1.62580 Y7.09117
X1.62580 Y1.62580
X21.50278 Y1.62580
X21.36798 Y4.15683
X21.41075 Y5.31126
X21.52779 Y7.08794
X21.57199 Y7.47702
X21.67837 Y8.03485
X21.82561 Y8.46734
X21.89569 Y8.74501
X21.93453 Y9.01369
X21.94494 Y9.21227
X21.92713 Y9.54801
X21.87882 Y9.82566
X21.67837 Y10.45677
X21.61977 Y10.71402
X21.57199 Y11.01460
X21.51169 Y11.62009
X21.12564 Y11.83932
X20.77509 Y12.00609
X20.14035 Y12.24216
X19.92366 Y12.30635
X19.12549 Y12.48399
X18.37535 Y12.58115
X17.80941 Y12.62039
X17.63690 Y12.22154
X15.80817 Y10.40752
X15.46090 Y10.12769
X15.16131 Y9.93231
X14.81084 Y9.75705
X14.36080 Y9.59210
X14.08029 Y9.53615
X13.82321 Y9.51898
X7.36028 Y9.50866
X5.60382 Y8.87201
X4.45623 Y8.41524
X3.58518 Y8.03475
X2.66507 Y7.60524
X1.62580 Y7.09117
G04 P0 ( dwell for no time -- G64 should not smooth over this point )
G00 Z10.00000 ( retract )

G00 X15.88534 Y10.47745 ( rapid move to begin. )
F30.00000
G01 Z-0.10000
G04 P0 ( dwell for no time -- G64 should not smooth over this point )
F360.00000
G01 X15.88534 Y10.47745
X17.63690 Y12.22154
X17.80941 Y12.62039
X17.07045 Y14.40444
X16.76133 Y14.71170
X16.34310 Y15.17388
X16.17391 Y15.38282
X15.50868 Y16.33359
X14.90279 Y17.12295
X14.64163 Y17.52302
X14.50116 Y17.78221
X14.27320 Y18.30329
X14.18336 Y18.55757
X14.05946 Y18.60890
X13.84399 Y18.64847
X13.35037 Y18.77469
X12.94790 Y18.92500
X12.73477 Y19.02640
X12.43401 Y19.20184
X12.16957 Y19.39554
X11.93213 Y19.61116
X11.80968 Y20.21250
X11.77460 Y20.47707
X11.77460 Y20.87455
X11.81727 Y21.18235
X11.54681 Y21.43694
X11.41981 Y21.51631
X11.29281 Y21.56394
X11.16579 Y21.57981
X9.86582 Y21.57981
X9.68543 Y21.54778
X9.50501 Y21.45167
X9.13120 Y21.44697
X8.89622 Y21.41176
X8.65279 Y21.33775
X8.39582 Y21.23272
X6.88889 Y19.72576
X6.50872 Y19.56562
X6.24860 Y19.41964
X6.01965 Y19.25802
X5.86024 Y19.12188
X5.62907 Y18.87814
X5.52935 Y18.74817
X5.46397 Y18.37138
X5.45302 Y18.16244
X5.46397 Y17.90024
X5.50299 Y17.63514
X5.52935 Y17.52348
X5.62910 Y17.39348
X5.81475 Y17.19293
X6.01962 Y17.01363
X6.31723 Y16.81000
X6.60133 Y16.66196
X6.94042 Y16.52953
X7.35665 Y16.41713
X7.88520 Y16.33476
X8.15919 Y16.31320
X8.88853 Y16.31111
X9.52904 Y16.36204
X10.44407 Y15.44703
X11.02743 Y15.26174
X11.81877 Y14.93911
X12.41011 Y14.34594
X12.59710 Y14.13957
X12.82776 Y13.84175
X12.99121 Y13.58143
X13.10780 Y13.34734
X13.18979 Y13.13157
X13.24473 Y12.92799
X13.28788 Y12.59001
X13.26355 Y12.20246
X13.22029 Y12.00307
X13.15255 Y11.79410
X13.02659 Y11.51366
X10.39470 Y11.51356
X10.03541 Y11.35537
X9.72977 Y11.17577
X8.15048 Y10.05111
X7.36028 Y9.50866
X13.10129 Y9.51537
X13.82321 Y9.51898
X14.08029 Y9.53615
X14.28359 Y9.57277
X14.49758 Y9.63371
X14.97246 Y9.83104
X15.23848 Y9.97856
X15.46090 Y10.12769
X15.88534 Y10.47745
G04 P0 ( dwell for no time -- G64 should not smooth over this point )
G00 Z10.00000 ( retract )

G00 X41.50037 Y8.52464 ( rapid move to begin. )
F30.00000
G01 Z-0.10000
G04 P0 ( dwell for no time -- G64 should not smooth over this point )
F360.00000
G01 X41.50037 Y8.52464
X41.59344 Y8.78926
X41.69443 Y9.23259
X41.33479 Y9.42474
X41.11005 Y9.51796
X38.35126 Y9.51385
X37.97209 Y9.68207
X37.64841 Y9.87455
X37.27519 Y10.15311
X36.87717 Y10.51582
X33.18949 Y10.51582
X32.97545 Y10.55367
X32.43486 Y10.81933
X31.97598 Y10.98410
X31.54733 Y11.08811
X31.13750 Y11.14254
X30.93509 Y11.15319
X30.53413 Y11.14254
X30.33552 Y11.12167
X29.94513 Y11.05004
X29.83326 Y10.45677
X29.63281 Y9.82566
X29.57711 Y9.47793
X29.56669 Y9.27935
X29.57711 Y9.01369
X29.61594 Y8.74501
X29.68602 Y8.46734
X29.79115 Y8.17153
X29.87594 Y7.86584
X30.28460 Y7.76356
X30.61343 Y7.72200
X31.05821 Y7.72200
X31.38703 Y7.76356
X31.61129 Y7.81149
X32.52013 Y7.65081
X32.79259 Y7.62383
X38.38519 Y7.62289
X38.67711 Y7.53323
X39.03495 Y7.47829
X40.45227 Y7.48101
X40.69067 Y7.51426
X41.00690 Y7.77288
X41.14932 Y7.92927
X41.27807 Y8.10303
X41.39491 Y8.29919
X41.50037 Y8.52464
G04 P0 ( dwell for no time -- G64 should not smooth over this point )
G00 Z10.00000 ( retract )

G00 X41.89392 Y12.50472 ( rapid move to begin. )
F30.00000
G01 Z-0.10000
G04 P0 ( dwell for no time -- G64 should not smooth over this point )
F360.00000
G01 X41.89392 Y12.50472
X42.03692 Y12.90929
X41.93156 Y13.46441
X41.74465 Y14.00972
X41.53416 Y14.44759
X41.33012 Y14.79301
X40.81490 Y15.49184
X40.28811 Y16.06644
X40.01572 Y16.22376
X39.40297 Y16.62049
X38.59296 Y16.61642
X38.05588 Y16.32280
X37.68161 Y16.08831
X36.65461 Y15.67517
X36.12972 Y15.51559
X35.48840 Y15.38727
X34.80110 Y15.19143
X34.59216 Y15.14701
X33.92439 Y15.05219
X33.27133 Y15.02885
X32.61830 Y15.07413
X31.95061 Y15.19141
X31.44251 Y15.32900
X24.56388 Y15.32907
X24.28938 Y15.45364
X23.81654 Y15.71043
X23.46495 Y15.94510
X23.09205 Y16.24606
X19.50423 Y19.82162
X19.11815 Y19.98154
X18.23722 Y20.85007
X17.83766 Y21.15093
X17.56247 Y21.29843
X17.29491 Y21.39523
X16.98140 Y21.45009
X13.68742 Y21.45484
X13.33139 Y21.55172
X13.13751 Y21.57521
X12.94790 Y21.57803
X12.70028 Y21.55172
X12.36157 Y21.46068
X12.14450 Y21.36894
X11.81727 Y21.18235
X11.77460 Y20.87455
X11.77460 Y20.47707
X11.80968 Y20.21250
X11.93213 Y19.61116
X12.16957 Y19.39554
X12.43401 Y19.20184
X12.73477 Y19.02640
X12.94790 Y18.92500
X13.35037 Y18.77469
X13.84399 Y18.64847
X14.05946 Y18.60890
X14.18336 Y18.55757
X14.27320 Y18.30329
X14.50116 Y17.78221
X14.64163 Y17.52302
X14.90279 Y17.12295
X15.50868 Y16.33359
X16.17391 Y15.38282
X16.34310 Y15.17388
X16.76133 Y14.71170
X17.07045 Y14.40444
X17.80941 Y12.62039
X18.37535 Y12.58115
X19.12549 Y12.48399
X19.92366 Y12.30635
X20.14035 Y12.24216
X20.77509 Y12.00609
X21.12564 Y11.83932
X21.51169 Y11.62009
X21.90877 Y11.54056
X22.48289 Y11.33861
X22.76932 Y11.25568
X23.22820 Y11.18692
X24.16579 Y11.18080
X24.43201 Y11.16185
X24.69820 Y11.10500
X24.96439 Y11.01029
X25.23058 Y10.87765
X26.28105 Y10.87765
X26.54724 Y11.01029
X26.81343 Y11.10500
X27.07963 Y11.16185
X27.34582 Y11.18080
X29.24579 Y11.18080
X29.59547 Y11.14811
X29.94513 Y11.05004
X30.33552 Y11.12167
X30.53413 Y11.14254
X30.93509 Y11.15319
X31.33611 Y11.12167
X31.54733 Y11.08811
X31.97598 Y10.98410
X32.43486 Y10.81933
X32.97545 Y10.55367
X33.18949 Y10.51582
X36.87717 Y10.51582
X37.32756 Y10.92128
X37.67374 Y11.17381
X37.97854 Y11.35296
X38.34486 Y11.51371
X41.04129 Y11.51539
X41.11694 Y11.51808
X41.19943 Y11.54861
X41.31518 Y11.59746
X41.51119 Y11.83091
X41.75186 Y12.20675
X41.89392 Y12.50472
G04 P0 ( dwell for no time -- G64 should not smooth over this point )
G00 Z10.00000 ( retract )

G00 X44.87728 Y18.09986 ( rapid move to begin. )
F30.00000
G01 Z-0.10000
G04 P0 ( dwell for no time -- G64 should not smooth over this point )
F360.00000
G01 X44.87728 Y18.09986
X44.85843 Y18.45569
X44.80728 Y18.74931
X44.71817 Y19.05983
X44.58094 Y19.39645
X44.47449 Y19.60542
X44.24261 Y19.98032
X44.08155 Y20.20107
X43.72186 Y20.62685
X43.65302 Y20.79302
X41.70030 Y21.59528
X41.47762 Y21.65886
X41.26532 Y21.69726
X40.89093 Y21.71532
X40.63337 Y21.81143
X40.37579 Y21.84346
X39.07582 Y21.84346
X38.89073 Y21.82693
X38.70564 Y21.77727
X38.52055 Y21.69457
X38.33546 Y21.57874
X38.45349 Y21.00323
X38.47417 Y20.61293
X38.45349 Y20.34839
X38.33464 Y19.76887
X38.27793 Y19.34344
X38.22885 Y18.58982
X38.21242 Y18.02894
X38.36845 Y17.35693
X38.59296 Y16.61642
X39.40297 Y16.62049
X40.01572 Y16.22376
X40.28811 Y16.06644
X40.35521 Y15.99913
X40.93040 Y15.35021
X41.23677 Y14.93464
X41.53416 Y14.44759
X41.74465 Y14.00972
X41.89105 Y13.60606
X41.98722 Y13.22527
X42.03692 Y12.90929
X41.89392 Y12.50472
X41.75186 Y12.20675
X41.51119 Y11.83091
X41.31518 Y11.59746
X41.11694 Y11.51808
X41.04129 Y11.51539
X38.34486 Y11.51371
X37.97854 Y11.35296
X37.67374 Y11.17381
X37.32756 Y10.92128
X36.87717 Y10.51582
X37.27519 Y10.15311
X37.64841 Y9.87455
X37.97209 Y9.68207
X38.35126 Y9.51385
X41.11005 Y9.51796
X41.33479 Y9.42474
X41.69443 Y9.23259
X41.91864 Y9.33216
X42.12770 Y9.44824
X42.31000 Y9.57455
X42.47223 Y9.71252
X44.29313 Y11.53114
X44.51558 Y11.79355
X44.55726 Y12.01895
X44.57532 Y12.28841
X44.57532 Y16.86415
X44.71817 Y17.21180
X44.80728 Y17.52231
X44.85843 Y17.81594
X44.87728 Y18.09986
G04 P0 ( dwell for no time -- G64 should not smooth over this point )
G00 Z10.00000 ( retract )

G00 X48.61580 Y25.81968 ( rapid move to begin. )
F30.00000
G01 Z-0.10000
G04 P0 ( dwell for no time -- G64 should not smooth over this point )
F360.00000
G01 X48.61580 Y25.81968
X47.81989 Y25.70129
X45.71563 Y25.47335
X44.28569 Y25.27005
X43.64027 Y25.22517
X43.43133 Y25.22517
X42.78594 Y25.27005
X42.12605 Y25.38608
X41.62410 Y25.52214
X36.47917 Y25.52214
X35.10219 Y26.09250
X34.43902 Y26.16466
X33.91167 Y26.27713
X33.48030 Y26.41640
X33.27133 Y26.50294
X32.92566 Y26.68028
X32.62892 Y26.87505
X32.15752 Y27.26138
X31.73456 Y27.55872
X31.68487 Y27.85628
X31.62856 Y28.41675
X31.49049 Y28.59057
X31.32884 Y28.74081
X31.14365 Y28.86750
X30.93486 Y28.97063
X28.76514 Y29.86935
X28.71805 Y29.86935
X27.47477 Y30.38434
X26.74389 Y31.11520
X26.61689 Y31.22635
X26.48989 Y31.30572
X26.36289 Y31.35335
X26.23586 Y31.36922
X22.73574 Y31.36922
X22.60874 Y31.35335
X22.48174 Y31.30572
X22.35474 Y31.22635
X22.22772 Y31.11520
X21.33163 Y30.21911
X20.80115 Y28.93839
X21.61898 Y27.61508
X21.84875 Y27.30294
X22.11146 Y27.05671
X22.40714 Y26.87637
X22.73574 Y26.76197
X24.41557 Y26.36540
X26.18509 Y26.36540
X26.49812 Y26.01490
X26.68544 Y25.71518
X26.79784 Y25.41544
X26.83530 Y25.11572
X26.83530 Y24.61534
X26.87277 Y24.31562
X26.98516 Y24.01590
X27.17251 Y23.71618
X27.43474 Y23.41646
X29.27848 Y21.57242
X31.24617 Y21.58039
X31.60263 Y21.70364
X31.92836 Y21.64372
X32.78317 Y21.42680
X33.27133 Y21.25464
X34.23765 Y20.82614
X34.73562 Y20.91857
X35.20463 Y21.06018
X35.42355 Y21.14715
X35.81166 Y21.41385
X36.11971 Y21.58032
X36.53610 Y21.74067
X36.91285 Y21.82167
X37.29373 Y21.84168
X37.65347 Y21.80346
X38.05143 Y21.69650
X38.33546 Y21.57874
X38.52055 Y21.69457
X38.70564 Y21.77727
X38.89073 Y21.82693
X39.07582 Y21.84346
X40.37579 Y21.84346
X40.63337 Y21.81143
X40.89093 Y21.71532
X41.13626 Y21.70999
X41.47762 Y21.65886
X41.85699 Y21.53699
X43.65302 Y20.79302
X43.72186 Y20.62685
X44.08155 Y20.20107
X44.24261 Y19.98032
X44.47449 Y19.60542
X44.58094 Y19.39645
X44.71817 Y19.05983
X44.80728 Y18.74931
X44.85843 Y18.45569
X44.87728 Y18.09986
X44.85843 Y17.81594
X44.80728 Y17.52231
X44.71817 Y17.21180
X44.57532 Y16.86415
X44.57532 Y12.28841
X44.55726 Y12.01895
X44.51558 Y11.79355
X44.29313 Y11.53114
X42.47223 Y9.71252
X42.31000 Y9.57455
X42.12770 Y9.44824
X41.91864 Y9.33216
X41.69443 Y9.23259
X41.63532 Y8.94384
X41.54399 Y8.63838
X41.43878 Y8.38596
X41.32207 Y8.17176
X41.19456 Y7.98624
X41.05552 Y7.82276
X40.90294 Y7.67654
X40.69067 Y7.51426
X40.31064 Y7.47379
X39.10396 Y7.47473
X38.89332 Y7.49269
X38.67711 Y7.53323
X38.38519 Y7.62289
X32.79259 Y7.62383
X32.52013 Y7.65081
X31.61129 Y7.81149
X31.25681 Y7.74288
X30.93509 Y7.71553
X30.73651 Y7.71553
X30.41482 Y7.74288
X30.08599 Y7.80577
X29.87594 Y7.86584
X29.63281 Y8.66597
X29.58450 Y8.94362
X29.56669 Y9.21227
X29.57711 Y9.47793
X29.61594 Y9.74661
X29.68602 Y10.02428
X29.83326 Y10.45677
X29.94513 Y11.05004
X29.59547 Y11.14811
X29.24579 Y11.18080
X27.34582 Y11.18080
X27.07963 Y11.16185
X26.81343 Y11.10500
X26.54724 Y11.01029
X26.28105 Y10.87765
X25.23058 Y10.87765
X24.96439 Y11.01029
X24.69820 Y11.10500
X24.43201 Y11.16185
X24.16579 Y11.18080
X23.30661 Y11.18306
X22.96373 Y11.21692
X22.69089 Y11.27534
X22.48289 Y11.33861
X21.90877 Y11.54056
X21.51169 Y11.62009
X21.57199 Y11.01460
X21.61977 Y10.71402
X21.67837 Y10.45677
X21.87882 Y9.82566
X21.92713 Y9.54801
X21.94494 Y9.21227
X21.92713 Y8.94362
X21.87882 Y8.66597
X21.67837 Y8.03485
X21.57199 Y7.47702
X21.52779 Y7.08794
X21.45213 Y6.07159
X21.36798 Y4.15683
X21.50278 Y1.62580
X48.61580 Y1.62580
X48.61580 Y25.81968

G04 P0 ( dwell for no time -- G64 should not smooth over this point )
G00 Z50.000 ( retract )

M5 ( Spindle off. )
M9 ( Coolant off. )
M2 ( Program end. )

( pcb2gcode 1.3.2 )
( Software-independent Gcode )

( This file uses 2 drill bit sizes. )
( Bit sizes: [0.8mm] [1.001mm] )

G94       (Millimeters per minute feed rate.)
G21       (Units == Millimeters.)
G91.1     (Incremental arc distance mode.)
G90       (Absolute coordinates.)
S10000     (RPM spindle speed.)

G00 Z50.00000 (Retract)
T2
M5      (Spindle stop.)
(MSG, Change tool bit to drill size 0.80000 mm)
M6      (drill size 0.80000 mm)
M0      (Temporary machine stop.)
M3      (Spindle on clockwise.)
G0 Z10.00000

F30.00000
G0 X10.51580 Y20.67580
G1 Z-2.00000
G1 Z10.00000
G0 X13.01580 Y20.67580
G1 Z-2.00000
G1 Z10.00000
G0 X11.78580 Y12.51580
G1 Z-2.00000
G1 Z10.00000
G0 X11.78580 Y10.51580
G1 Z-2.00000
G1 Z10.00000
G0 X11.78580 Y8.51580
G1 Z-2.00000
G1 Z10.00000
G0 X39.72580 Y8.51580
G1 Z-2.00000
G1 Z10.00000
G0 X39.72580 Y10.51580
G1 Z-2.00000
G1 Z10.00000
G0 X39.72580 Y12.51580
G1 Z-2.00000
G1 Z10.00000
G0 X39.72580 Y20.67580
G1 Z-2.00000
G1 Z10.00000
G0 X37.22580 Y20.67580
G1 Z-2.00000
G1 Z10.00000

G00 Z50.00000 (Retract)
T3
M5      (Spindle stop.)
(MSG, Change tool bit to drill size 1.00100 mm)
M6      (drill size 1.00100 mm)
M0      (Temporary machine stop.)
M3      (Spindle on clockwise.)
G0 Z10.00000

F30.00000
G0 X6.70580 Y18.13580
G1 Z-2.00000
G1 Z10.00000
G0 X6.70580 Y28.29580
G1 Z-2.00000
G1 Z10.00000
G0 X16.86580 Y28.29580
G1 Z-2.00000
G1 Z10.00000
G0 X23.48680 Y29.36480
G1 Z-2.00000
G1 Z10.00000
G0 X23.48680 Y23.36580
G1 Z-2.00000
G1 Z10.00000
G0 X29.18480 Y27.36480
G1 Z-2.00000
G1 Z10.00000
G0 X33.37580 Y28.29580
G1 Z-2.00000
G1 Z10.00000
G0 X33.37580 Y18.13580
G1 Z-2.00000
G1 Z10.00000
G0 X30.83580 Y9.24580
G1 Z-2.00000
G1 Z10.00000
G0 X28.29580 Y9.24580
G1 Z-2.00000
G1 Z10.00000
G0 X23.21580 Y9.24580
G1 Z-2.00000
G1 Z10.00000
G0 X20.67580 Y9.24580
G1 Z-2.00000
G1 Z10.00000
G0 X16.86580 Y18.13580
G1 Z-2.00000
G1 Z10.00000
G0 X43.53580 Y18.13580
G1 Z-2.00000
G1 Z10.00000
G0 X43.53580 Y28.29580
G1 Z-2.00000
G1 Z10.00000

G00 Z50.000 ( All done -- retract )

M5      (Spindle off.)
M9      (Coolant off.)
M2      (Program end.)

( pcb2gcode 1.3.2 )
( Software-independent Gcode )

G94 ( Millimeters per minute feed rate. )
G21 ( Units == Millimeters. )

G90 ( Absolute coordinates. )
S10000 ( RPM spindle speed. )

G00 Z50.00000 (Retract)
T4
M5      (Spindle stop.)
(MSG, Change tool bit to cutter, diameter 3 mm)
M6      (cutter, diameter 3 mm)
M0      (Temporary machine stop.)
M3      (Spindle on clockwise.)
G0 Z10.00000

F360.00000 ( Feedrate. )

F360.00000 ( Feedrate. )
M3 ( Spindle on clockwise. )
G04 P0 ( dwell for no time -- G64 should not smooth over this point )
G00 Z10.00000 ( retract )

G00 X50.11580 Y1.62580 ( rapid move to begin. )
G01 Z-0.20000 F30.00000 ( plunge. )
G04 P0 ( dwell for no time -- G64 should not smooth over this point )
F360.00000
G01 X50.11580 Y1.62580
X50.11580 Y13.50080
X50.11580 Y21.50080
X50.11580 Y33.37580
X50.08700 Y33.66846
X50.00163 Y33.94984
X49.86302 Y34.20917
X49.67648 Y34.43648
X49.44918 Y34.62302
X49.18984 Y34.76162
X48.90846 Y34.84699
X48.61580 Y34.87580
X29.12080 Y34.87580
X21.12080 Y34.87580
X1.62580 Y34.87580
X1.33317 Y34.84699
X1.05179 Y34.76162
X0.79245 Y34.62302
X0.56515 Y34.43648
X0.37861 Y34.20917
X0.24000 Y33.94984
X0.15463 Y33.66846
X0.12581 Y33.37580
X0.12581 Y21.50080
X0.12581 Y13.50080
X0.12581 Y1.62580
X0.15463 Y1.33317
X0.24000 Y1.05178
X0.37861 Y0.79245
X0.56515 Y0.56515
X0.79245 Y0.37861
X1.05179 Y0.24000
X1.33317 Y0.15463
X1.62580 Y0.12580
X21.12080 Y0.12580
X29.12080 Y0.12580
X48.61580 Y0.12580
X48.90846 Y0.15463
X49.18984 Y0.24000
X49.44918 Y0.37861
X49.67648 Y0.56515
X49.86302 Y0.79245
X50.00163 Y1.05178
X50.08700 Y1.33317
X50.11580 Y1.62580
G01 Z-0.40000 F30.00000 ( plunge. )
G04 P0 ( dwell for no time -- G64 should not smooth over this point )
F360.00000
G01 X50.11580 Y1.62580
X50.11580 Y13.50080
X50.11580 Y21.50080
X50.11580 Y33.37580
X50.08700 Y33.66846
X50.00163 Y33.94984
X49.86302 Y34.20917
X49.67648 Y34.43648
X49.44918 Y34.62302
X49.18984 Y34.76162
X48.90846 Y34.84699
X48.61580 Y34.87580
X29.12080 Y34.87580
X21.12080 Y34.87580
X1.62580 Y34.87580
X1.33317 Y34.84699
X1.05179 Y34.76162
X0.79245 Y34.62302
X0.56515 Y34.43648
X0.37861 Y34.20917
X0.24000 Y33.94984
X0.15463 Y33.66846
X0.12581 Y33.37580
X0.12581 Y21.50080
X0.12581 Y13.50080
X0.12581 Y1.62580
X0.15463 Y1.33317
X0.24000 Y1.05178
X0.37861 Y0.79245
X0.56515 Y0.56515
X0.79245 Y0.37861
X1.05179 Y0.24000
X1.33317 Y0.15463
X1.62580 Y0.12580
X21.12080 Y0.12580
X29.12080 Y0.12580
X48.61580 Y0.12580
X48.90846 Y0.15463
X49.18984 Y0.24000
X49.44918 Y0.37861
X49.67648 Y0.56515
X49.86302 Y0.79245
X50.00163 Y1.05178
X50.08700 Y1.33317
X50.11580 Y1.62580
G01 Z-0.60000 F30.00000 ( plunge. )
G04 P0 ( dwell for no time -- G64 should not smooth over this point )
F360.00000
G01 X50.11580 Y1.62580
X50.11580 Y13.50080
X50.11580 Y21.50080
X50.11580 Y33.37580
X50.08700 Y33.66846
X50.00163 Y33.94984
X49.86302 Y34.20917
X49.67648 Y34.43648
X49.44918 Y34.62302
X49.18984 Y34.76162
X48.90846 Y34.84699
X48.61580 Y34.87580
X29.12080 Y34.87580
X21.12080 Y34.87580
X1.62580 Y34.87580
X1.33317 Y34.84699
X1.05179 Y34.76162
X0.79245 Y34.62302
X0.56515 Y34.43648
X0.37861 Y34.20917
X0.24000 Y33.94984
X0.15463 Y33.66846
X0.12581 Y33.37580
X0.12581 Y21.50080
X0.12581 Y13.50080
X0.12581 Y1.62580
X0.15463 Y1.33317
X0.24000 Y1.05178
X0.37861 Y0.79245
X0.56515 Y0.56515
X0.79245 Y0.37861
X1.05179 Y0.24000
X1.33317 Y0.15463
X1.62580 Y0.12580
X21.12080 Y0.12580
X29.12080 Y0.12580
X48.61580 Y0.12580
X48.90846 Y0.15463
X49.18984 Y0.24000
X49.44918 Y0.37861
X49.67648 Y0.56515
X49.86302 Y0.79245
X50.00163 Y1.05178
X50.08700 Y1.33317
X50.11580 Y1.62580
G01 Z-0.80000 F30.00000 ( plunge. )
G04 P0 ( dwell for no time -- G64 should not smooth over this point )
F360.00000
G01 X50.11580 Y1.62580
X50.11580 Y13.50080
X50.11580 Y21.50080
X50.11580 Y33.37580
X50.08700 Y33.66846
X50.00163 Y33.94984
X49.86302 Y34.20917
X49.67648 Y34.43648
X49.44918 Y34.62302
X49.18984 Y34.76162
X48.90846 Y34.84699
X48.61580 Y34.87580
X29.12080 Y34.87580
X21.12080 Y34.87580
X1.62580 Y34.87580
X1.33317 Y34.84699
X1.05179 Y34.76162
X0.79245 Y34.62302
X0.56515 Y34.43648
X0.37861 Y34.20917
X0.24000 Y33.94984
X0.15463 Y33.66846
X0.12581 Y33.37580
X0.12581 Y21.50080
X0.12581 Y13.50080
X0.12581 Y1.62580
X0.15463 Y1.33317
X0.24000 Y1.05178
X0.37861 Y0.79245
X0.56515 Y0.56515
X0.79245 Y0.37861
X1.05179 Y0.24000
X1.33317 Y0.15463
X1.62580 Y0.12580
X21.12080 Y0.12580
X29.12080 Y0.12580
X48.61580 Y0.12580
X48.90846 Y0.15463
X49.18984 Y0.24000
X49.44918 Y0.37861
X49.67648 Y0.56515
X49.86302 Y0.79245
X50.00163 Y1.05178
X50.08700 Y1.33317
X50.11580 Y1.62580
G01 Z-1.00000 F30.00000 ( plunge. )
G04 P0 ( dwell for no time -- G64 should not smooth over this point )
F360.00000
G01 X50.11580 Y1.62580
X50.11580 Y13.50080
Z-0.80000
X50.11580 Y21.50080
Z-1.00000 F30.00000
F360.00000
G01 X50.11580 Y33.37580
X50.08700 Y33.66846
X50.00163 Y33.94984
X49.86302 Y34.20917
X49.67648 Y34.43648
X49.44918 Y34.62302
X49.18984 Y34.76162
X48.90846 Y34.84699
X48.61580 Y34.87580
X29.12080 Y34.87580
Z-0.80000
X21.12080 Y34.87580
Z-1.00000 F30.00000
F360.00000
G01 X1.62580 Y34.87580
X1.33317 Y34.84699
X1.05179 Y34.76162
X0.79245 Y34.62302
X0.56515 Y34.43648
X0.37861 Y34.20917
X0.24000 Y33.94984
X0.15463 Y33.66846
X0.12581 Y33.37580
X0.12581 Y21.50080
Z-0.80000
X0.12581 Y13.50080
Z-1.00000 F30.00000
F360.00000
G01 X0.12581 Y1.62580
X0.15463 Y1.33317
X0.24000 Y1.05178
X0.37861 Y0.79245
X0.56515 Y0.56515
X0.79245 Y0.37861
X1.05179 Y0.24000
X1.33317 Y0.15463
X1.62580 Y0.12580
X21.12080 Y0.12580
Z-0.80000
X29.12080 Y0.12580
Z-1.00000 F30.00000
F360.00000
G01 X48.61580 Y0.12580
X48.90846 Y0.15463
X49.18984 Y0.24000
X49.44918 Y0.37861
X49.67648 Y0.56515
X49.86302 Y0.79245
X50.00163 Y1.05178
X50.08700 Y1.33317
X50.11580 Y1.62580
G01 Z-1.20000 F30.00000 ( plunge. )
G04 P0 ( dwell for no time -- G64 should not smooth over this point )
F360.00000
G01 X50.11580 Y1.62580
X50.11580 Y13.50080
Z-0.80000
X50.11580 Y21.50080
Z-1.20000 F30.00000
F360.00000
G01 X50.11580 Y33.37580
X50.08700 Y33.66846
X50.00163 Y33.94984
X49.86302 Y34.20917
X49.67648 Y34.43648
X49.44918 Y34.62302
X49.18984 Y34.76162
X48.90846 Y34.84699
X48.61580 Y34.87580
X29.12080 Y34.87580
Z-0.80000
X21.12080 Y34.87580
Z-1.20000 F30.00000
F360.00000
G01 X1.62580 Y34.87580
X1.33317 Y34.84699
X1.05179 Y34.76162
X0.79245 Y34.62302
X0.56515 Y34.43648
X0.37861 Y34.20917
X0.24000 Y33.94984
X0.15463 Y33.66846
X0.12581 Y33.37580
X0.12581 Y21.50080
Z-0.80000
X0.12581 Y13.50080
Z-1.20000 F30.00000
F360.00000
G01 X0.12581 Y1.62580
X0.15463 Y1.33317
X0.24000 Y1.05178
X0.37861 Y0.79245
X0.56515 Y0.56515
X0.79245 Y0.37861
X1.05179 Y0.24000
X1.33317 Y0.15463
X1.62580 Y0.12580
X21.12080 Y0.12580
Z-0.80000
X29.12080 Y0.12580
Z-1.20000 F30.00000
F360.00000
G01 X48.61580 Y0.12580
X48.90846 Y0.15463
X49.18984 Y0.24000
X49.44918 Y0.37861
X49.67648 Y0.56515
X49.86302 Y0.79245
X50.00163 Y1.05178
X50.08700 Y1.33317
X50.11580 Y1.62580
G01 Z-1.40000 F30.00000 ( plunge. )
G04 P0 ( dwell for no time -- G64 should not smooth over this point )
F360.00000
G01 X50.11580 Y1.62580
X50.11580 Y13.50080
Z-0.80000
X50.11580 Y21.50080
Z-1.40000 F30.00000
F360.00000
G01 X50.11580 Y33.37580
X50.08700 Y33.66846
X50.00163 Y33.94984
X49.86302 Y34.20917
X49.67648 Y34.43648
X49.44918 Y34.62302
X49.18984 Y34.76162
X48.90846 Y34.84699
X48.61580 Y34.87580
X29.12080 Y34.87580
Z-0.80000
X21.12080 Y34.87580
Z-1.40000 F30.00000
F360.00000
G01 X1.62580 Y34.87580
X1.33317 Y34.84699
X1.05179 Y34.76162
X0.79245 Y34.62302
X0.56515 Y34.43648
X0.37861 Y34.20917
X0.24000 Y33.94984
X0.15463 Y33.66846
X0.12581 Y33.37580
X0.12581 Y21.50080
Z-0.80000
X0.12581 Y13.50080
Z-1.40000 F30.00000
F360.00000
G01 X0.12581 Y1.62580
X0.15463 Y1.33317
X0.24000 Y1.05178
X0.37861 Y0.79245
X0.56515 Y0.56515
X0.79245 Y0.37861
X1.05179 Y0.24000
X1.33317 Y0.15463
X1.62580 Y0.12580
X21.12080 Y0.12580
Z-0.80000
X29.12080 Y0.12580
Z-1.40000 F30.00000
F360.00000
G01 X48.61580 Y0.12580
X48.90846 Y0.15463
X49.18984 Y0.24000
X49.44918 Y0.37861
X49.67648 Y0.56515
X49.86302 Y0.79245
X50.00163 Y1.05178
X50.08700 Y1.33317
X50.11580 Y1.62580
G01 Z-1.60000 F30.00000 ( plunge. )
G04 P0 ( dwell for no time -- G64 should not smooth over this point )
F360.00000
G01 X50.11580 Y1.62580
X50.11580 Y13.50080
Z-0.80000
X50.11580 Y21.50080
Z-1.60000 F30.00000
F360.00000
G01 X50.11580 Y33.37580
X50.08700 Y33.66846
X50.00163 Y33.94984
X49.86302 Y34.20917
X49.67648 Y34.43648
X49.44918 Y34.62302
X49.18984 Y34.76162
X48.90846 Y34.84699
X48.61580 Y34.87580
X29.12080 Y34.87580
Z-0.80000
X21.12080 Y34.87580
Z-1.60000 F30.00000
F360.00000
G01 X1.62580 Y34.87580
X1.33317 Y34.84699
X1.05179 Y34.76162
X0.79245 Y34.62302
X0.56515 Y34.43648
X0.37861 Y34.20917
X0.24000 Y33.94984
X0.15463 Y33.66846
X0.12581 Y33.37580
X0.12581 Y21.50080
Z-0.80000
X0.12581 Y13.50080
Z-1.60000 F30.00000
F360.00000
G01 X0.12581 Y1.62580
X0.15463 Y1.33317
X0.24000 Y1.05178
X0.37861 Y0.79245
X0.56515 Y0.56515
X0.79245 Y0.37861
X1.05179 Y0.24000
X1.33317 Y0.15463
X1.62580 Y0.12580
X21.12080 Y0.12580
Z-0.80000
X29.12080 Y0.12580
Z-1.60000 F30.00000
F360.00000
G01 X48.61580 Y0.12580
X48.90846 Y0.15463
X49.18984 Y0.24000
X49.44918 Y0.37861
X49.67648 Y0.56515
X49.86302 Y0.79245
X50.00163 Y1.05178
X50.08700 Y1.33317
X50.11580 Y1.62580

G04 P0 ( dwell for no time -- G64 should not smooth over this point )
G00 Z50.000 ( retract )

M5 ( Spindle off. )
M9 ( Coolant off. )
M2 ( Program end. )

